X:135
T:Sir Alexander McDonald's Reel
M: C|
L:1/8
B:Thompson's Compleat Collection of 200 Favourite Country Dances, vol. 3 (London, 1773)
Z:Transcribed and edited by Flynn Titford-Mock, 2007
Z:abc's:AK/Fiddler's Companion
K:D
F(AA)(f/g/) afed | gfed BdBA | F(AA)(f/g/) afed | (e/f/g) (f/g/a) e2 d2 :|
|: F(AA)B ABAF | G/G/G G2 GABG | F(AA)B ABAF | GBAF E2D2 :|
|: (f/g/a) ab a>baf | g/g/g g2 gaba | f/g/a ab a>baf | fafg e2 d2 :|

